build/img/custle.svg

<?xml version="1.0" encoding="UTF-8"?>
<svg width="120px" height="120px" viewBox="0 0 120 120" version="1.1" xmlns="http://www.w3.org/2000/svg" xmlns:xlink="http://www.w3.org/1999/xlink">
    <!-- Generator: Sketch 49.3 (51167) - http://www.bohemiancoding.com/sketch -->
    <title>pagoda</title>
    <desc>Created with Sketch.</desc>
    <defs></defs>
    <g id="Page-1" stroke="none" stroke-width="1" fill="none" fill-rule="evenodd">
        <g id="OnPlace-KOREA" transform="translate(-901.000000, -369.000000)" fill-rule="nonzero">
            <g id="pagoda" transform="translate(901.000000, 369.000000)">
                <g id="Group" transform="translate(2.000000, 19.000000)" fill="#FFA64D">
                    <path d="M58,77.6470588 C53.7350667,77.6470588 50.2666667,81.1295294 50.2666667,85.4117647 L50.2666667,99 L65.7333333,99 L65.7333333,85.4117647 C65.7333333,81.1295294 62.2649333,77.6470588 58,77.6470588 Z" id="Shape"></path>
                    <path d="M81.2,77.6470588 C76.9350667,77.6470588 73.4666667,81.1295294 73.4666667,85.4117647 L73.4666667,99 L88.9333333,99 L88.9333333,85.4117647 C88.9333333,81.1295294 85.4649333,77.6470588 81.2,77.6470588 Z" id="Shape"></path>
                    <path d="M34.8,77.6470588 C30.5350667,77.6470588 27.0666667,81.1295294 27.0666667,85.4117647 L27.0666667,99 L42.5333333,99 L42.5333333,85.4117647 C42.5333333,81.1295294 39.0649333,77.6470588 34.8,77.6470588 Z" id="Shape"></path>
                    <path d="M13.5333333,50.4705882 C7.69466667,50.4705882 2.44566667,46.9007647 0.276466667,41.4596471 L0,40.7647059 L0,38.8235294 L19.3333333,38.8235294 L96.6666667,38.8235294 L116,38.8235294 L116,40.7647059 L115.723533,41.4596471 C113.554333,46.9007647 108.305333,50.4705882 102.466667,50.4705882 L13.5333333,50.4705882 Z" id="Shape"></path>
                    <path d="M87,0 L83.1333333,0 L0,0 L0,2.51964706 C0,5.91476471 1.15033333,9.20894118 3.26346667,11.8586471 C6.08806667,15.4051765 10.3665333,17.4705882 14.8905333,17.4705882 L15.4666667,17.4705882 L100.533333,17.4705882 L101.109467,17.4705882 C105.633467,17.4705882 109.91,15.4051765 112.736533,11.8605882 C114.849667,9.20894118 116,5.91476471 116,2.51964706 L116,0 L87,0 Z" id="Shape"></path>
                </g>
                <path d="M116.309032,32.3883871 C118.689677,29.4154839 120,25.68 120,21.8690323 L120,17.4193548 L96.3909677,17.4193548 L93.6154839,10.9432258 C95.4832258,9.97741935 96.7741935,8.04967742 96.7741935,5.80645161 C96.7741935,2.60516129 94.1690323,0 90.9677419,0 C87.7664516,0 85.1612903,2.60516129 85.1612903,5.80645161 C85.1612903,6.48774194 85.3006452,7.13419355 85.5174194,7.74193548 L34.4825806,7.74193548 C34.6993548,7.13419355 34.8387097,6.48774194 34.8387097,5.80645161 C34.8387097,2.60516129 32.2335484,0 29.0322581,0 C25.8309677,0 23.2258065,2.60516129 23.2258065,5.80645161 C23.2258065,8.04967742 24.5167742,9.97741935 26.3845161,10.9432258 L23.6090323,17.4193548 L0,17.4193548 L0,21.8690323 C0,25.68 1.31032258,29.4154839 3.68903226,32.3903226 C6.61935484,36.0483871 10.863871,38.2645161 15.483871,38.6341935 L15.483871,56.1290323 L0,56.1290323 L0,60.3716129 L0.414193548,61.4090323 C2.4,66.3696774 6.6,69.8845161 11.6129032,71.1077419 L11.6129032,83.2258065 L0,83.2258065 L0,120 L21.2903226,120 L23.2258065,120 L96.7741935,120 L98.7096774,120 L120,120 L120,83.2258065 L108.387097,83.2258065 L108.387097,71.1077419 C113.4,69.8864516 117.6,66.3696774 119.585806,61.4090323 L120,60.3716129 L120,56.1290323 L104.516129,56.1290323 L104.516129,38.6341935 C109.136129,38.2645161 113.380645,36.0483871 116.309032,32.3883871 Z M116.129032,21.2903226 L116.129032,21.8690323 C116.129032,24.8051613 115.120645,27.6812903 113.285806,29.9709677 C110.955484,32.8858065 107.539355,34.6103226 103.840645,34.8019355 L98.0496774,21.2903226 L116.129032,21.2903226 Z M89.0322581,5.80645161 C89.0322581,4.73806452 89.8993548,3.87096774 90.9677419,3.87096774 C92.036129,3.87096774 92.9032258,4.73806452 92.9032258,5.80645161 C92.9032258,6.87483871 92.036129,7.74193548 90.9677419,7.74193548 C89.8993548,7.74193548 89.0322581,6.87483871 89.0322581,5.80645161 Z M29.0322581,3.87096774 C30.1006452,3.87096774 30.9677419,4.73806452 30.9677419,5.80645161 C30.9677419,6.87483871 30.1006452,7.74193548 29.0322581,7.74193548 C27.963871,7.74193548 27.0967742,6.87483871 27.0967742,5.80645161 C27.0967742,4.73806452 27.963871,3.87096774 29.0322581,3.87096774 Z M30.3077419,11.6129032 L89.6922581,11.6129032 L92.1812903,17.4193548 L89.0322581,17.4193548 L89.0322581,21.2903226 L93.84,21.2903226 L99.6464516,34.8387097 L84.483871,34.8387097 L78.4625806,21.2903226 L85.1612903,21.2903226 L85.1612903,17.4193548 L27.8187097,17.4193548 L30.3077419,11.6129032 Z M20.3535484,34.8387097 L26.16,21.2903226 L41.5374194,21.2903226 L35.516129,34.8387097 L20.3535484,34.8387097 Z M45.7741935,21.2903226 L58.0645161,21.2903226 L58.0645161,34.8387097 L39.7529032,34.8387097 L45.7741935,21.2903226 Z M61.9354839,21.2903226 L74.2258065,21.2903226 L80.2470968,34.8387097 L61.9354839,34.8387097 L61.9354839,21.2903226 Z M6.71225806,29.9690323 C4.87935484,27.6812903 3.87096774,24.8032258 3.87096774,21.8690323 L3.87096774,21.2903226 L21.9503226,21.2903226 L16.1593548,34.8 C12.4606452,34.6083871 9.04451613,32.883871 6.71225806,29.9690323 Z M4.01806452,60 L17.6729032,60 L12.7374194,67.4032258 C8.83935484,66.5225806 5.56258065,63.8283871 4.01806452,60 Z M3.87096774,116.129032 L3.87096774,87.0967742 L21.2903226,87.0967742 L21.2903226,89.0322581 L21.2903226,90.9677419 L21.2903226,116.129032 L3.87096774,116.129032 Z M94.8387097,89.0322581 L85.1612903,89.0322581 L85.1612903,81.2903226 L94.8387097,81.2903226 L94.8387097,89.0322581 Z M81.2903226,89.0322581 L73.5483871,89.0322581 L73.5483871,81.2903226 L81.2903226,81.2903226 L81.2903226,89.0322581 Z M69.6774194,89.0322581 L61.9354839,89.0322581 L61.9354839,81.2903226 L69.6774194,81.2903226 L69.6774194,89.0322581 Z M58.0645161,89.0322581 L50.3225806,89.0322581 L50.3225806,81.2903226 L58.0645161,81.2903226 L58.0645161,89.0322581 Z M46.4516129,89.0322581 L38.7096774,89.0322581 L38.7096774,81.2903226 L46.4516129,81.2903226 L46.4516129,89.0322581 Z M34.8387097,89.0322581 L25.1612903,89.0322581 L25.1612903,81.2903226 L34.8387097,81.2903226 L34.8387097,89.0322581 Z M94.8387097,116.129032 L25.1612903,116.129032 L25.1612903,92.9032258 L94.8387097,92.9032258 L94.8387097,116.129032 Z M116.129032,116.129032 L98.7096774,116.129032 L98.7096774,90.9677419 L98.7096774,89.0322581 L98.7096774,87.0967742 L116.129032,87.0967742 L116.129032,116.129032 Z M98.7096774,83.2258065 L98.7096774,77.4193548 L21.2903226,77.4193548 L21.2903226,83.2258065 L15.483871,83.2258065 L15.483871,71.6129032 L19.3548387,71.6129032 L19.3548387,67.7419355 L17.163871,67.7419355 L22.3258065,60 L31.7070968,60 L27.836129,67.7419355 L23.2258065,67.7419355 L23.2258065,71.6129032 L104.516129,71.6129032 L104.516129,83.2258065 L98.7096774,83.2258065 Z M36.7741935,48.3870968 L54.1935484,48.3870968 L54.1935484,56.1290323 L36.7741935,56.1290323 L36.7741935,48.3870968 Z M65.8064516,48.3870968 L83.2258065,48.3870968 L83.2258065,56.1290323 L65.8064516,56.1290323 L65.8064516,48.3870968 Z M45.2554839,60 L41.3845161,67.7419355 L32.163871,67.7419355 L36.0348387,60 L45.2554839,60 Z M49.5832258,60 L58.0645161,60 L58.0645161,67.7419355 L45.7122581,67.7419355 L49.5832258,60 Z M61.9354839,60 L70.4167742,60 L74.2877419,67.7419355 L61.9354839,67.7419355 L61.9354839,60 Z M78.6154839,67.7419355 L74.7445161,60 L83.9651613,60 L87.836129,67.7419355 L78.6154839,67.7419355 Z M92.163871,67.7419355 L88.2929032,60 L97.6741935,60 L102.836129,67.7419355 L92.163871,67.7419355 Z M90.9677419,56.1290323 L87.0967742,56.1290323 L87.0967742,48.3870968 L90.9677419,48.3870968 L90.9677419,56.1290323 Z M61.9354839,56.1290323 L58.0645161,56.1290323 L58.0645161,48.3870968 L61.9354839,48.3870968 L61.9354839,56.1290323 Z M32.9032258,56.1290323 L29.0322581,56.1290323 L29.0322581,48.3870968 L32.9032258,48.3870968 L32.9032258,56.1290323 Z M107.260645,67.4032258 L102.325161,60 L115.978065,60 C114.437419,63.8303226 111.160645,66.5225806 107.260645,67.4032258 Z M99.7451613,56.1290323 L98.7096774,56.1290323 L94.8387097,56.1290323 L94.8387097,44.516129 L85.1612903,44.516129 L83.2258065,44.516129 L65.8064516,44.516129 L63.8709677,44.516129 L56.1290323,44.516129 L54.1935484,44.516129 L36.7741935,44.516129 L34.8387097,44.516129 L25.1612903,44.516129 L25.1612903,56.1290323 L21.2903226,56.1290323 L20.2548387,56.1290323 L19.3548387,56.1290323 L19.3548387,38.7096774 L100.645161,38.7096774 L100.645161,56.1290323 L99.7451613,56.1290323 Z" id="Shape" fill="#333333"></path>
            </g>
        </g>
    </g>
</svg>

<svg width="120" height="120" viewBox="0 0 120 120" xmlns="http://www.w3.org/2000/svg"><title>pagoda</title><g fill-rule="nonzero" fill="none"><g fill="#FFA64D"><path d="M60 96.647c-4.265 0-7.733 3.483-7.733 7.765V118h15.466v-13.588c0-4.282-3.468-7.765-7.733-7.765zM83.2 96.647c-4.265 0-7.733 3.483-7.733 7.765V118h15.466v-13.588c0-4.282-3.468-7.765-7.733-7.765zM36.8 96.647c-4.265 0-7.733 3.483-7.733 7.765V118h15.466v-13.588c0-4.282-3.468-7.765-7.733-7.765zM15.533 69.47c-5.838 0-11.087-3.57-13.257-9.01L2 59.765v-1.941h116v1.94l-.276.696c-2.17 5.44-7.419 9.01-13.257 9.01H15.533zM89 19H2v2.52c0 3.395 1.15 6.689 3.263 9.339a14.865 14.865 0 0 0 11.628 5.612H103.109c4.524 0 8.801-2.066 11.628-5.61A14.988 14.988 0 0 0 118 21.52V19H89z"/></g><path d="M116.309 32.388A16.887 16.887 0 0 0 120 21.87v-4.45H96.391l-2.776-6.476c1.868-.966 3.16-2.893 3.16-5.137A5.814 5.814 0 0 0 90.967 0a5.814 5.814 0 0 0-5.807 5.806c0 .682.14 1.328.356 1.936H34.483a5.741 5.741 0 0 0 .356-1.936A5.814 5.814 0 0 0 29.032 0a5.814 5.814 0 0 0-5.806 5.806c0 2.244 1.29 4.171 3.159 5.137l-2.776 6.476H0v4.45c0 3.811 1.31 7.546 3.689 10.521a16.752 16.752 0 0 0 11.795 6.244V56.13H0v4.243l.414 1.037c1.986 4.96 6.186 8.476 11.199 9.699v12.118H0V120h120V83.226h-11.613V71.108c5.013-1.222 9.213-4.738 11.199-9.699l.414-1.037v-4.243h-15.484V38.634c4.62-.37 8.865-2.586 11.793-6.246zm-.18-11.098v.579c0 2.936-1.008 5.812-2.843 8.102-2.33 2.915-5.747 4.64-9.445 4.83l-5.791-13.51h18.079zM89.032 5.806a1.936 1.936 0 1 1 3.873.002 1.936 1.936 0 0 1-3.873-.002zm-60-1.935a1.936 1.936 0 1 1-.001 3.872 1.936 1.936 0 0 1 .001-3.872zm1.276 7.742h59.384l2.49 5.806h-3.15v3.871h4.808l5.806 13.549H84.484L78.463 21.29h6.698v-3.87H27.82l2.489-5.807zm-9.954 23.226L26.16 21.29h15.377l-6.02 13.549H20.353zm25.42-13.549h12.29V34.84H39.754l6.021-13.549zm16.161 0h12.29l6.022 13.549H61.935V21.29zM6.712 29.97a13.002 13.002 0 0 1-2.841-8.1v-.579h18.08L16.158 34.8a12.889 12.889 0 0 1-9.447-4.831zM4.018 60h13.655l-4.936 7.403C8.84 66.523 5.563 63.828 4.018 60zm-.147 56.129V87.097h17.42v29.032H3.87zm90.968-27.097H85.16V81.29h9.678v7.742zm-13.549 0h-7.742V81.29h7.742v7.742zm-11.613 0h-7.742V81.29h7.742v7.742zm-11.612 0h-7.742V81.29h7.742v7.742zm-11.613 0H38.71V81.29h7.742v7.742zm-11.613 0H25.16V81.29h9.678v7.742zm60 27.097H25.16V92.903H94.84v23.226zm21.29 0h-17.42V87.097h17.42v29.032zm-17.42-32.903v-5.807H21.29v5.807h-5.806V71.613h3.87v-3.871h-2.19L22.326 60h9.381l-3.87 7.742h-4.611v3.87h81.29v11.614H98.71zM36.775 48.387h17.42v7.742h-17.42v-7.742zm29.032 0h17.42v7.742h-17.42v-7.742zM45.256 60l-3.871 7.742h-9.221L36.034 60h9.221zm4.327 0h8.482v7.742H45.712L49.583 60zm12.352 0h8.482l3.87 7.742H61.936V60zm16.68 7.742L74.745 60h9.22l3.871 7.742h-9.22zm13.549 0L88.293 60h9.381l5.162 7.742H92.164zm-1.196-11.613h-3.871v-7.742h3.87v7.742zm-29.033 0h-3.87v-7.742h3.87v7.742zm-29.032 0h-3.87v-7.742h3.87v7.742zm74.358 11.274L102.325 60h13.653c-1.54 3.83-4.817 6.523-8.717 7.403zM99.745 56.13H94.84V44.516H25.16V56.13H19.355v-17.42h81.29v17.42h-.9z" fill="#333"/></g></svg>
